assets/img/home/Rental-icon.svg

<?xml version="1.0" encoding="UTF-8"?>
<svg width="50px" height="48px" viewBox="0 0 50 48" version="1.1" xmlns="http://www.w3.org/2000/svg" xmlns:xlink="http://www.w3.org/1999/xlink">
    <!-- Generator: Sketch 52.3 (67297) - http://www.bohemiancoding.com/sketch -->
    <title>rental-icon</title>
    <desc>Created with Sketch.</desc>
    <g id="Temporary-Homepage-(Instapage)" stroke="none" stroke-width="1" fill="none" fill-rule="evenodd">
        <g id="Insta" transform="translate(-695.000000, -1128.000000)">
            <g id="Group-4" transform="translate(603.000000, 1128.000000)">
                <g id="Group-33">
                    <g id="rental-icon" transform="translate(92.000000, 0.000000)">
                        <path d="M35.2272727,5.68181818 C40.2397727,5.68181818 44.3181818,9.76022727 44.3181818,14.7727273 C44.3181818,15.4 44.8261364,15.9090909 45.4545455,15.9090909 C46.0829545,15.9090909 46.5909091,15.4 46.5909091,14.7727273 C46.5909091,8.50681818 41.4931818,3.40909091 35.2272727,3.40909091 C34.5988636,3.40909091 34.0909091,3.91818182 34.0909091,4.54545455 C34.0909091,5.17272727 34.5988636,5.68181818 35.2272727,5.68181818 Z" id="Path"></path>
                        <path d="M28.4090909,12.5 C33.4215909,12.5 37.5,16.5784091 37.5,21.5909091 C37.5,22.2181818 38.0079545,22.7272727 38.6363636,22.7272727 C39.2647727,22.7272727 39.7727273,22.2181818 39.7727273,21.5909091 C39.7727273,15.325 34.675,10.2272727 28.4090909,10.2272727 C27.7806818,10.2272727 27.2727273,10.7363636 27.2727273,11.3636364 C27.2727273,11.9909091 27.7806818,12.5 28.4090909,12.5 Z" id="Path" fill="#6D5CAE"></path>
                        <path d="M25,23.8636364 C24.3715909,23.8636364 23.8636364,24.3727273 23.8636364,25 C23.8636364,25.6272727 24.3715909,26.1363636 25,26.1363636 L27.2727273,26.1363636 L27.2727273,27.2727273 C27.2727273,27.9 27.7806818,28.4090909 28.4090909,28.4090909 C29.0375,28.4090909 29.5454545,27.9 29.5454545,27.2727273 L29.5454545,26.1363636 L31.8181818,26.1363636 C32.4465909,26.1363636 32.9545455,25.6272727 32.9545455,25 L32.9545455,21.5909091 C32.9545455,20.9636364 32.4465909,20.4545455 31.8181818,20.4545455 L26.1363636,20.4545455 L26.1363636,19.3181818 L31.8181818,19.3181818 C32.4465909,19.3181818 32.9545455,18.8090909 32.9545455,18.1818182 C32.9545455,17.5545455 32.4465909,17.0454545 31.8181818,17.0454545 L29.5454545,17.0454545 L29.5454545,15.9090909 C29.5454545,15.2818182 29.0375,14.7727273 28.4090909,14.7727273 C27.7806818,14.7727273 27.2727273,15.2818182 27.2727273,15.9090909 L27.2727273,17.0454545 L25,17.0454545 C24.3715909,17.0454545 23.8636364,17.5545455 23.8636364,18.1818182 L23.8636364,21.5909091 C23.8636364,22.2181818 24.3715909,22.7272727 25,22.7272727 L30.6818182,22.7272727 L30.6818182,23.8636364 L25,23.8636364 Z" id="Path" fill="#6D5CAE"></path>
                        <path d="M48.8659091,20.4545455 C49.6102273,18.6738636 50,16.7409091 50,14.7727273 C50,6.62727273 43.3727273,0 35.2272727,0 C29.5681818,0 24.4011364,3.26022727 21.9386364,8.33181818 C17.3556818,10.5784091 14.1034091,15.1181818 13.6943182,20.4545455 L4.54545455,20.4545455 C3.91704545,20.4545455 3.40909091,20.9636364 3.40909091,21.5909091 L3.40909091,23.8636364 L1.13636364,23.8636364 C0.507954545,23.8636364 0,24.3727273 0,25 L0,46.5909091 C0,47.2181818 0.507954545,47.7272727 1.13636364,47.7272727 L45.4545455,47.7272727 C46.0829545,47.7272727 46.5909091,47.2181818 46.5909091,46.5909091 L46.5909091,44.3181818 L48.8636364,44.3181818 C49.4920455,44.3181818 50,43.8090909 50,43.1818182 L50,21.5909091 C50,20.9647727 49.4931818,20.4568182 48.8659091,20.4545455 Z M35.2272727,2.27272727 C42.1193182,2.27272727 47.7272727,7.88068182 47.7272727,14.7727273 C47.7272727,16.9863636 47.1477273,19.1465909 46.0477273,21.0238636 C45.3613636,22.2170455 44.5034091,23.2659091 43.4829545,24.15 C43.2784091,24.3318182 43.0681818,24.5022727 42.8534091,24.6681818 C43.0647727,23.675 43.1818182,22.6465909 43.1818182,21.5909091 C43.1818182,13.4454545 36.5545455,6.81818182 28.4090909,6.81818182 C27.3511364,6.81818182 26.3215909,6.93522727 25.3272727,7.14659091 C27.6636364,4.12272727 31.3056818,2.27272727 35.2272727,2.27272727 Z M28.4090909,9.09090909 C35.3011364,9.09090909 40.9090909,14.6988636 40.9090909,21.5909091 C40.9090909,28.4829545 35.3011364,34.0909091 28.4090909,34.0909091 C21.5170455,34.0909091 15.9090909,28.4829545 15.9090909,21.5909091 C15.9090909,14.6988636 21.5170455,9.09090909 28.4090909,9.09090909 Z M5.68181818,22.7272727 L13.6795455,22.7272727 C13.6852273,22.8011364 13.6988636,22.875 13.7045455,22.9488636 C13.7170455,23.0863636 13.7352273,23.2204545 13.7511364,23.3556818 C13.7715909,23.525 13.7829545,23.6954545 13.8102273,23.8636364 L5.68181818,23.8636364 L5.68181818,22.7272727 Z M44.3181818,45.4545455 L2.27272727,45.4545455 L2.27272727,26.1363636 L4.54545455,26.1363636 L14.3590909,26.1363636 C16.2818182,32.0636364 21.85,36.3636364 28.4090909,36.3636364 C34.2318182,36.3636364 39.2647727,32.9681818 41.6693182,28.0613636 C42.6068182,27.6079545 43.4954545,27.0534091 44.3181818,26.4045455 L44.3181818,43.1818182 L44.3181818,45.4545455 Z M46.5909091,42.0454545 L46.5909091,25 C46.5909091,24.8602273 46.5579545,24.7295455 46.5113636,24.6056818 C46.4988636,24.5715909 46.4852273,24.5409091 46.4693182,24.5090909 C46.4534091,24.4772727 46.4454545,24.4409091 46.4261364,24.4102273 C46.45,24.3829545 46.4670455,24.3511364 46.4909091,24.3238636 C46.8852273,23.8590909 47.2477273,23.3659091 47.5829545,22.8511364 C47.6113636,22.8079545 47.6477273,22.7715909 47.675,22.7272727 L47.7272727,42.0454545 L46.5909091,42.0454545 Z" id="Shape" fill="#6D5CAE" fill-rule="nonzero"></path>
                        <path d="M18.1818182,40.9090909 L5.68181818,40.9090909 C5.05340909,40.9090909 4.54545455,41.4181818 4.54545455,42.0454545 C4.54545455,42.6727273 5.05340909,43.1818182 5.68181818,43.1818182 L18.1818182,43.1818182 C18.8102273,43.1818182 19.3181818,42.6727273 19.3181818,42.0454545 C19.3181818,41.4181818 18.8102273,40.9090909 18.1818182,40.9090909 Z" id="Path" fill="#6D5CAE"></path>
                        <path d="M18.1818182,36.3636364 L5.68181818,36.3636364 C5.05340909,36.3636364 4.54545455,36.8727273 4.54545455,37.5 C4.54545455,38.1272727 5.05340909,38.6363636 5.68181818,38.6363636 L18.1818182,38.6363636 C18.8102273,38.6363636 19.3181818,38.1272727 19.3181818,37.5 C19.3181818,36.8727273 18.8102273,36.3636364 18.1818182,36.3636364 Z" id="Path" fill="#6D5CAE"></path>
                    </g>
                </g>
            </g>
        </g>
    </g>
</svg>

<?xml version="1.0" encoding="UTF-8" standalone="no"?>
<svg xmlns="http://www.w3.org/2000/svg" height="48px" width="50px" version="1.1" xmlns:xlink="http://www.w3.org/1999/xlink" viewBox="0 0 50 48"><!-- Generator: Sketch 52.3 (67297) - http://www.bohemiancoding.com/sketch -->
 <title>rental-icon</title>
 <desc>Created with Sketch.</desc>
 <g id="Temporary-Homepage-(Instapage)" fill-rule="evenodd" fill="none">
  <g id="Insta" transform="translate(-695 -1128)">
   <g id="Group-4" transform="translate(603 1128)">
    <g id="Group-33">
     <g id="rental-icon" transform="translate(92)">
      <path id="Path" d="m35.227 5.6818c5.013 0 9.091 4.0784 9.091 9.0912 0 0.627 0.508 1.136 1.137 1.136 0.628 0 1.136-0.509 1.136-1.136 0-6.2662-5.098-11.364-11.364-11.364-0.628 0.0001-1.136 0.5092-1.136 1.1365 0 0.6272 0.508 1.1363 1.136 1.1363z"/>
      <path id="Path" fill="#6D5CAE" d="m28.409 12.5c5.013 0 9.091 4.078 9.091 9.091 0 0.627 0.508 1.136 1.136 1.136 0.629 0 1.137-0.509 1.137-1.136 0-6.266-5.098-11.364-11.364-11.364-0.628 0-1.136 0.509-1.136 1.137 0 0.627 0.508 1.136 1.136 1.136z"/>
      <path id="Path" fill="#6D5CAE" d="m25 23.864c-0.628 0-1.136 0.509-1.136 1.136s0.508 1.136 1.136 1.136h2.273v1.137c0 0.627 0.508 1.136 1.136 1.136 0.629 0 1.136-0.509 1.136-1.136v-1.137h2.273c0.629 0 1.137-0.509 1.137-1.136v-3.409c0-0.627-0.508-1.136-1.137-1.136h-5.682v-1.137h5.682c0.629 0 1.137-0.509 1.137-1.136s-0.508-1.137-1.137-1.137h-2.273v-1.136c0-0.627-0.507-1.136-1.136-1.136-0.628 0-1.136 0.509-1.136 1.136v1.136h-2.273c-0.628 0-1.136 0.51-1.136 1.137v3.409c0 0.627 0.508 1.136 1.136 1.136h5.682v1.137h-5.682z"/>
      <path id="Shape" fill-rule="nonzero" fill="#6D5CAE" d="m48.866 20.455c0.744-1.781 1.134-3.714 1.134-5.682 0-8.1457-6.627-14.773-14.773-14.773-5.659 0-10.826 3.2602-13.288 8.3318-4.583 2.2462-7.836 6.7862-8.245 12.123h-9.1485c-0.6285 0-1.1364 0.509-1.1364 1.136v2.273h-2.2727c-0.62845 0-1.1364 0.509-1.1364 1.136v21.591c0 0.627 0.50795 1.136 1.1364 1.136h44.319c0.628 0 1.136-0.509 1.136-1.136v-2.273h2.273c0.628 0 1.136-0.509 1.136-1.136v-21.591c0-0.626-0.507-1.134-1.134-1.136zm-13.639-18.182c6.892 0 12.5 5.608 12.5 12.5 0 2.213-0.579 4.374-1.679 6.251-0.687 1.193-1.545 2.242-2.565 3.126-0.205 0.182-0.415 0.352-0.63 0.518 0.212-0.993 0.329-2.021 0.329-3.077 0-8.146-6.627-14.773-14.773-14.773-1.058 0.0002-2.087 0.1172-3.082 0.3286 2.337-3.0239 5.979-4.8739 9.9-4.8739zm-6.818 6.8182c6.892 0 12.5 5.6081 12.5 12.5 0 6.892-5.608 12.5-12.5 12.5s-12.5-5.608-12.5-12.5 5.608-12.5 12.5-12.5zm-22.727 13.636h7.9982c0.005 0.074 0.019 0.148 0.025 0.222 0.012 0.137 0.03 0.271 0.046 0.407 0.021 0.169 0.032 0.339 0.059 0.508h-8.1282v-1.137zm38.636 22.728h-42.045l-0.0003-19.319h2.2728 9.8135c1.923 5.928 7.491 10.228 14.05 10.228 5.823 0 10.856-3.396 13.26-8.303 0.938-0.453 1.826-1.008 2.649-1.656v16.777 2.273zm2.273-3.41v-17.045c0-0.14-0.033-0.27-0.08-0.394-0.012-0.034-0.026-0.065-0.042-0.097s-0.024-0.068-0.043-0.099c0.024-0.027 0.041-0.059 0.065-0.086 0.394-0.465 0.757-0.958 1.092-1.473 0.028-0.043 0.065-0.079 0.092-0.124l0.052 19.318h-1.136z"/>
      <path id="Path" fill="#6D5CAE" d="m18.182 40.909h-12.5c-0.6286 0-1.1365 0.509-1.1365 1.136 0 0.628 0.5079 1.137 1.1363 1.137h12.5c0.628 0 1.136-0.509 1.136-1.137 0-0.627-0.508-1.136-1.136-1.136z"/>
      <path id="Path" fill="#6D5CAE" d="m18.182 36.364h-12.5c-0.6286 0-1.1365 0.509-1.1365 1.136s0.5079 1.136 1.1363 1.136h12.5c0.628 0 1.136-0.509 1.136-1.136s-0.508-1.136-1.136-1.136z"/>
     </g>
    </g>
   </g>
  </g>
 </g>
</svg>
